X: 47
T:Glory of England,bass part. JNu.26
M:3/8
Q:30
S:James Nuttall MS,c1830,Rossendale,East Lancs.
R:Waltz
O:England
A:East Lancashire
Z:vmp.Chris Partington
K:Eb
"secundo,read as bass clef"ceg|ceg|Gdf|Gdf|GBd|GBd|CGc|c2z:|!
|:ccc|cec|GGG|ccc|cge|cec|GGG|c3|]
